X:97
T:Joan to the Maypole
Z:Jack Campin, http://www.campin.me.uk/
F:Jack Campin's Nine-Note Tunebook
% last edit 03-02-2013
S:Simpson, The British Broadside Ballad and Its Music
M:C|
L:1/8
K:DMin
C2CC F2FF|G2FG A4|c3c (dc)(BA)|(BA)(GF) F4:|
(c=B3) (cC3)|(c=B3) (cC3)|C2CC F2FG|A2GF E2D2|
(d^c3) (dD3)|(d^c3) (dD3)|C2CC F2FG|A2GF E2D2|]

